Papirus/32x32/status/image-missing.svg

<svg xmlns="http://www.w3.org/2000/svg" width="32" height="32" version="1">
 <path style="opacity:0.2" d="M 3.4999,5 C 2.6689,5 1.9999,5.669 1.9999,6.5 V 27.5 C 1.9999,28.331 2.6689,29 3.4999,29 H 20 L 30,19 V 6.5 C 30,5.669 29.331,5 28.5,5 Z"/>
 <path style="fill:#e4e4e4" d="M 3.4999,4 C 2.6689,4 1.9999,4.669 1.9999,5.5 V 26.5 C 1.9999,27.331 2.6689,28 3.4999,28 H 20 L 30,18 V 5.5 C 30,4.669 29.331,4 28.5,4 Z"/>
 <path style="opacity:0.3" d="M 11,13.125 17.625,20.625 21.875,16.5 26,20.625 23,24 H 6 V 19 Z"/>
 <path style="fill:#fafafa" d="M 30,18 H 21.5 C 20.672,18 20,18.672 20,19.5 V 28 Z"/>
 <path style="opacity:0.2;fill:#ffffff" d="M 21.5,18 C 20.672,18 20,18.672 20,19.5 V 20.5 C 20,19.672 20.672,19 21.5,19 H 29 L 30,18 Z"/>
 <path style="opacity:0.2;fill:#ffffff" d="M 3.5,4 C 2.669,4 2,4.669 2,5.5 V 6.5 C 2,5.669 2.669,5 3.5,5 H 28.5 C 29.331,5 30,5.669 30,6.5 V 5.5 C 30,4.669 29.331,4 28.5,4 Z"/>
</svg>

<svg xmlns="http://www.w3.org/2000/svg" width="32" height="32" version="1">
 <defs>
  <clipPath id="clipPath4483" clipPathUnits="userSpaceOnUse">
   <path fill="#fecd38" d="m91.5 254c-0.831 0-1.5 0.669-1.5 1.5v25c0 0.831 0.669 1.5 1.5 1.5h16.5l10-10v-16.5c0-0.831-0.669-1.5-1.5-1.5z"/>
  </clipPath>
 </defs>
 <path fill="#e4e4e4" d="m3.4999 4c-0.831 0-1.5 0.669-1.5 1.5v21c0 0.831 0.669 1.5 1.5 1.5h16.5l10-10v-12.5c0-0.831-0.669-1.5-1.5-1.5z"/>
 <path d="m11 13.125 6.625 7.5 4.25-4.125 4.125 4.125-3 3.375h-17v-5z" style="opacity:0.3"/>
 <path opacity=".2" d="m118 272h-8.5c-0.82843 0-1.5 0.67158-1.5 1.5v8.5z" clip-path="url(#clipPath4483)" transform="translate(-88 -254)"/>
 <path d="m30 18h-8.5c-0.82843 0-1.5 0.67158-1.5 1.5v8.5z" style="fill:#fafafa"/>
 <path fill="#fff" d="m21.5 18c-0.82843 0-1.5 0.67158-1.5 1.5v1c0-0.82842 0.67157-1.5 1.5-1.5h7.5l1-1h-8.5z" style="opacity:0.2"/>
 <path opacity=".2" d="m30 18-10 10h-16.5c-0.831 0-1.5-0.669-1.5-1.5v1c0 0.831 0.669 1.5 1.5 1.5h16.5l10-10v-1z"/>
 <path style="fill:#ffffff;opacity:0.2" d="M 3.5 4 C 2.669 4 2 4.669 2 5.5 L 2 6.5 C 2 5.669 2.669 5 3.5 5 L 28.5 5 C 29.331 5 30 5.669 30 6.5 L 30 5.5 C 30 4.669 29.331 4 28.5 4 L 3.5 4 z"/>
</svg>
